; generated by Slic3r 1.2.9 on 2015-10-05 at 08:19:41

; external perimeters extrusion width = 0.45mm
; perimeters extrusion width = 0.59mm
; infill extrusion width = 0.59mm
; solid infill extrusion width = 0.59mm
; top infill extrusion width = 0.59mm

M107
M190 S55 ; set bed temperature
M104 S210 ; set temperature
G28 ; home all axes
G1 X0 Y0 Z40 F5000 ; lift nozzle
M109 S210 ; wait for temperature to be reached
G21 ; set units to millimeters
G90 ; use absolute coordinates
M82 ; use absolute distances for extrusion
G92 E0
G1 E-8.00000 F1800.00000
G92 E0
G1 Z0.100 F7800.000
G1 Z0.300 F7800.000
G1 Z0.400 F7800.000
G1 X30.305 Y43.523 F7800.000
G1 Z0.300 F7800.000
G1 E8.00000 F1800.00000
G1 X19.523 Y51.025 E8.96523 F1200.000
G1 X18.628 Y51.619 E9.04417
G1 X17.316 Y52.451 E9.15836
G1 X16.347 Y53.035 E9.24149
G1 X15.000 Y53.809 E9.35567
G1 X13.583 Y54.575 E9.47401
G1 X12.146 Y55.303 E9.59240
G1 X10.691 Y55.994 E9.71080
G1 X9.165 Y56.670 E9.83340
G1 X7.675 Y57.282 E9.95178
G1 X6.170 Y57.855 E10.07017
G1 X4.214 Y58.534 E10.22231
G1 X2.657 Y59.022 E10.34217
G1 X1.053 Y59.479 E10.46476
G1 X-0.975 Y59.989 E10.61839
G1 X-2.604 Y60.347 E10.74101
G1 X-4.659 Y60.733 E10.89461
G1 X-6.307 Y60.990 E11.01724
G1 X-8.381 Y61.250 E11.17084
G1 X-9.985 Y61.402 E11.28924
G1 X-11.650 Y61.516 E11.41185
G1 X-13.260 Y61.582 E11.53023
G1 X-15.350 Y61.606 E11.68384
G1 X-17.018 Y61.574 E11.80647
G1 X-19.107 Y61.470 E11.96015
G1 X-20.769 Y61.336 E12.08269
G1 X-22.847 Y61.105 E12.23630
G1 X-24.499 Y60.870 E12.35893
G1 X-26.558 Y60.513 E12.51252
G1 X-28.193 Y60.178 E12.63515
G1 X-30.227 Y59.695 E12.78879
G1 X-31.837 Y59.261 E12.91135
G1 X-33.838 Y58.656 E13.06498
G1 X-35.420 Y58.124 E13.18761
G1 X-37.380 Y57.398 E13.34122
G1 X-38.926 Y56.771 E13.46382
G1 X-40.839 Y55.926 E13.61745
G1 X-42.344 Y55.206 E13.74004
G1 X-44.201 Y54.247 E13.89367
G1 X-45.659 Y53.436 E14.01629
G1 X-47.455 Y52.365 E14.16990
G1 X-48.861 Y51.467 E14.29250
G1 X-50.587 Y50.289 E14.44612
G1 X-51.936 Y49.307 E14.56874
G1 X-53.588 Y48.025 E14.72235
G1 X-54.874 Y46.962 E14.84497
G1 X-56.445 Y45.582 E14.99864
G1 X-57.664 Y44.444 E15.12119
G1 X-59.148 Y42.970 E15.27488
G1 X-60.294 Y41.759 E15.39742
G1 X-61.685 Y40.198 E15.55106
G1 X-62.756 Y38.920 E15.67364
G1 X-64.049 Y37.277 E15.82725
G1 X-65.041 Y35.935 E15.94989
G1 X-66.231 Y34.217 E16.10349
G1 X-67.139 Y32.817 E16.22610
G1 X-68.222 Y31.029 E16.37971
G1 X-69.043 Y29.576 E16.50233
G1 X-70.016 Y27.726 E16.65595
G1 X-70.746 Y26.226 E16.77856
G1 X-71.604 Y24.319 E16.93217
G1 X-72.242 Y22.778 E17.05477
G1 X-72.981 Y20.822 E17.20840
G1 X-73.524 Y19.245 E17.33101
G1 X-74.143 Y17.248 E17.48462
G1 X-74.589 Y15.640 E17.60723
G1 X-75.085 Y13.609 E17.76086
G1 X-75.432 Y11.977 E17.88348
G1 X-75.812 Y9.863 E18.04131
G1 X-76.112 Y7.794 E18.19493
G1 X-76.301 Y6.137 E18.31754
G1 X-76.473 Y4.053 E18.47116
G1 X-76.561 Y2.387 E18.59378
G1 X-76.606 Y0.297 E18.74741
G1 X-76.592 Y-1.371 E18.87001
G1 X-76.510 Y-3.460 E19.02362
G1 X-76.352 Y-5.602 E19.18145
G1 X-76.178 Y-7.262 E19.30407
G1 X-75.896 Y-9.333 E19.45770
G1 X-75.621 Y-10.979 E19.58031
G1 X-75.214 Y-13.029 E19.73391
G1 X-74.839 Y-14.655 E19.85653
G1 X-74.307 Y-16.676 E20.01014
G1 X-73.690 Y-18.733 E20.16795
G1 X-73.161 Y-20.316 E20.29059
G1 X-72.438 Y-22.278 E20.44421
G1 X-71.814 Y-23.825 E20.56682
G1 X-70.973 Y-25.739 E20.72044
G1 X-70.050 Y-27.656 E20.87680
G1 X-69.272 Y-29.155 E21.00090
G1 X-68.251 Y-30.979 E21.15451
G1 X-67.393 Y-32.410 E21.27713
G1 X-66.263 Y-34.168 E21.43072
G1 X-65.319 Y-35.544 E21.55334
G1 X-64.084 Y-37.231 E21.70696
G1 X-63.058 Y-38.547 E21.82958
G1 X-61.723 Y-40.155 E21.98319
G1 X-60.618 Y-41.406 E22.10581
G1 X-59.187 Y-42.929 E22.25943
G1 X-58.008 Y-44.110 E22.38204
G1 X-56.444 Y-45.583 E22.53988
G1 X-54.874 Y-46.962 E22.69348
G1 X-53.588 Y-48.025 E22.81610
G1 X-51.936 Y-49.306 E22.96971
G1 X-50.587 Y-50.289 E23.09233
G1 X-48.861 Y-51.467 E23.24596
G1 X-47.046 Y-52.616 E23.40378
G1 X-45.609 Y-53.465 E23.52640
G1 X-43.778 Y-54.472 E23.68001
G1 X-42.292 Y-55.232 E23.80264
G1 X-40.403 Y-56.126 E23.95624
G1 X-38.873 Y-56.793 E24.07886
G1 X-36.933 Y-57.571 E24.23249
G1 X-35.366 Y-58.143 E24.35508
G1 X-33.381 Y-58.801 E24.50873
G1 X-31.782 Y-59.277 E24.63131
G1 X-29.761 Y-59.812 E24.78494
G1 X-28.137 Y-60.190 E24.90753
G1 X-26.087 Y-60.601 E25.06116
G1 X-24.442 Y-60.879 E25.18378
G1 X-22.314 Y-61.171 E25.34162
G1 X-20.234 Y-61.384 E25.49522
G1 X-18.570 Y-61.503 E25.61785
G1 X-16.481 Y-61.589 E25.77147
G1 X-14.813 Y-61.607 E25.89406
G1 X-12.723 Y-61.565 E26.04768 F1200.000
G1 X-10.578 Y-61.448 E26.20551
G1 X-8.439 Y-61.256 E26.36336
G1 X-6.782 Y-61.056 E26.48599
G1 X-4.715 Y-60.742 E26.63962
G1 X-2.604 Y-60.347 E26.79743
G1 X-0.508 Y-59.878 E26.95527
G1 X1.570 Y-59.337 E27.11311
G1 X3.629 Y-58.723 E27.27095
G1 X5.212 Y-58.197 E27.39357
G1 X7.175 Y-57.477 E27.54719
G1 X9.165 Y-56.670 E27.70503
G1 X10.691 Y-55.994 E27.82765
G1 X12.627 Y-55.065 E27.98550
G1 X14.480 Y-54.096 E28.13912
G1 X16.348 Y-53.035 E28.29701
G1 X18.177 Y-51.910 E28.45480
G1 X20.013 Y-50.690 E28.61679
G1 X67.334 Y-17.740 E32.85417
G1 X68.067 Y-17.207 E32.92077
G1 X69.093 Y-16.378 E33.01770
G1 X70.107 Y-15.448 E33.11882
G1 X71.109 Y-14.400 E33.22537
G1 X71.992 Y-13.346 E33.32642
G1 X72.849 Y-12.176 E33.43301
G1 X73.561 Y-11.060 E33.53027
G1 X74.225 Y-9.861 E33.63100
G1 X74.843 Y-8.550 E33.73750
G1 X75.130 Y-7.852 E33.79297
G1 X75.391 Y-7.146 E33.84829
G1 X75.630 Y-6.422 E33.90426
G1 X75.839 Y-5.708 E33.95899
G1 X76.028 Y-4.967 E34.01514
G1 X76.186 Y-4.241 E34.06979
G1 X76.322 Y-3.495 E34.12545
G1 X76.432 Y-2.744 E34.18126
G1 X76.513 Y-2.004 E34.23596
G1 X76.570 Y-1.253 E34.29131
G1 X76.601 Y-0.499 E34.34676
G1 X76.605 Y0.254 E34.40214
G1 X76.583 Y1.010 E34.45769
G1 X76.535 Y1.764 E34.51320
G1 X76.459 Y2.519 E34.56896
G1 X76.360 Y3.256 E34.62359
G1 X76.233 Y3.998 E34.67895
G1 X76.080 Y4.742 E34.73478
G1 X75.903 Y5.469 E34.78973
G1 X75.698 Y6.201 E34.84557
G1 X75.471 Y6.913 E34.90051
G1 X75.217 Y7.623 E34.95590
G1 X74.939 Y8.323 E35.01125
G1 X74.637 Y9.013 E35.06665
G1 X74.309 Y9.696 E35.12231
G1 X73.961 Y10.361 E35.17746
G1 X73.586 Y11.019 E35.23309
G1 X73.191 Y11.659 E35.28838
G1 X72.773 Y12.287 E35.34380
G1 X72.336 Y12.897 E35.39895
G1 X71.875 Y13.494 E35.45435
G1 X71.395 Y14.073 E35.50969
G1 X70.596 Y14.954 E35.59702
G1 X69.655 Y15.877 E35.69391
G1 X68.660 Y16.741 E35.79077
G1 X67.613 Y17.543 E35.88766
G1 X30.361 Y43.485 E39.22357
G1 X30.055 Y43.045 F7800.000
G1 X19.225 Y50.580 E40.19309 F1200.000
G1 X18.338 Y51.169 E40.27134
G1 X17.033 Y51.996 E40.38484
G1 X16.076 Y52.573 E40.46694
G1 X14.737 Y53.342 E40.58044
G1 X13.333 Y54.101 E40.69775
G1 X11.908 Y54.824 E40.81511
G1 X10.466 Y55.508 E40.93247
G1 X8.957 Y56.176 E41.05371
G1 X7.480 Y56.783 E41.17106
G1 X5.987 Y57.352 E41.28842
G1 X4.045 Y58.026 E41.43953
G1 X2.502 Y58.510 E41.55836
G1 X0.915 Y58.961 E41.67958
G1 X-1.099 Y59.468 E41.83218
G1 X-2.710 Y59.822 E41.95343
G1 X-4.751 Y60.205 E42.10600
G1 X-6.381 Y60.460 E42.22725
G1 X-8.441 Y60.718 E42.37983
G1 X-10.031 Y60.869 E42.49719
G1 X-11.677 Y60.981 E42.61843
G1 X-13.752 Y61.058 E42.77102
G1 X-15.402 Y61.070 E42.89226
G1 X-16.999 Y61.038 E43.00962
G1 X-19.073 Y60.935 E43.16227
G1 X-20.717 Y60.803 E43.28344
G1 X-22.780 Y60.574 E43.43602
G1 X-24.414 Y60.341 E43.55728
G1 X-26.460 Y59.986 E43.70985
G1 X-28.076 Y59.655 E43.83110
G1 X-30.097 Y59.176 E43.98370
G1 X-31.689 Y58.747 E44.10490
G1 X-33.677 Y58.145 E44.25750
G1 X-35.241 Y57.620 E44.37875
G1 X-37.188 Y56.898 E44.53133
G1 X-38.716 Y56.278 E44.65257
G1 X-40.616 Y55.439 E44.80516
G1 X-42.104 Y54.727 E44.92639
G1 X-43.949 Y53.774 E45.07899
G1 X-45.391 Y52.972 E45.20023
G1 X-47.174 Y51.909 E45.35281
G1 X-48.565 Y51.021 E45.47404
G1 X-50.280 Y49.850 E45.62663
G1 X-51.613 Y48.879 E45.74787
G1 X-53.254 Y47.606 E45.90046
G1 X-54.526 Y46.555 E46.02171
G1 X-56.086 Y45.184 E46.17434
G1 X-57.291 Y44.059 E46.29553
G1 X-58.765 Y42.595 E46.44818
G1 X-59.899 Y41.398 E46.56935
G1 X-61.281 Y39.847 E46.72196
G1 X-62.340 Y38.583 E46.84317
G1 X-63.624 Y36.951 E46.99576
G1 X-64.605 Y35.624 E47.11702
G1 X-65.787 Y33.917 E47.26959
G1 X-66.685 Y32.533 E47.39083
G1 X-67.761 Y30.757 E47.54341
G1 X-68.572 Y29.321 E47.66466
G1 X-69.538 Y27.483 E47.81725
G1 X-70.261 Y25.999 E47.93849
G1 X-71.113 Y24.106 E48.09106
G1 X-71.743 Y22.582 E48.21230
G1 X-72.478 Y20.639 E48.36489
G1 X-73.163 Y18.623 E48.52136
G1 X-73.644 Y17.045 E48.64261
G1 X-74.190 Y15.041 E48.79522
G1 X-74.575 Y13.437 E48.91643
G1 X-74.997 Y11.404 E49.06902
G1 X-75.283 Y9.780 E49.19025
G1 X-75.581 Y7.725 E49.34285
G1 X-75.767 Y6.085 E49.46409
G1 X-75.939 Y4.016 E49.61667
G1 X-76.025 Y2.368 E49.73792
G1 X-76.071 Y0.292 E49.89052
G1 X-76.056 Y-1.357 E50.01175
G1 X-75.975 Y-3.432 E50.16433
G1 X-75.818 Y-5.555 E50.32079
G1 X-75.646 Y-7.196 E50.44204
G1 X-75.366 Y-9.254 E50.59463
G1 X-75.094 Y-10.881 E50.71587
G1 X-74.690 Y-12.918 E50.86844
G1 X-74.319 Y-14.525 E50.98970
G1 X-73.791 Y-16.533 E51.14227
G1 X-73.179 Y-18.572 E51.29872
G1 X-72.656 Y-20.137 E51.41998
G1 X-71.938 Y-22.086 E51.57258
G1 X-71.321 Y-23.616 E51.69381
G1 X-70.485 Y-25.517 E51.84640
G1 X-69.571 Y-27.418 E52.00139
G1 X-68.801 Y-28.899 E52.12412
G1 X-67.787 Y-30.712 E52.27670
G1 X-66.938 Y-32.126 E52.39794
G1 X-65.817 Y-33.873 E52.55050
G1 X-64.883 Y-35.234 E52.67176
G1 X-63.656 Y-36.909 E52.82435
G1 X-62.641 Y-38.210 E52.94559
G1 X-61.315 Y-39.807 E53.09817
G1 X-60.223 Y-41.044 E53.21942
G1 X-58.801 Y-42.558 E53.37201
G1 X-57.636 Y-43.725 E53.49325
G1 X-56.086 Y-45.185 E53.64971
G1 X-54.526 Y-46.555 E53.80228
G1 X-53.254 Y-47.606 E53.92354
G1 X-51.613 Y-48.879 E54.07612
G1 X-50.280 Y-49.850 E54.19736
G1 X-48.564 Y-51.021 E54.34996
G1 X-46.766 Y-52.160 E54.50641
G1 X-45.345 Y-52.999 E54.62766
G1 X-43.526 Y-54.000 E54.78024
G1 X-42.057 Y-54.751 E54.90149
G1 X-40.180 Y-55.639 E55.05407
G1 X-38.668 Y-56.299 E55.17531
G1 X-36.740 Y-57.071 E55.32792
G1 X-35.191 Y-57.637 E55.44914
G1 X-33.219 Y-58.290 E55.60176
G1 X-31.638 Y-58.761 E55.72296
G1 X-29.631 Y-59.293 E55.87556
G1 X-28.024 Y-59.666 E55.99678
G1 X-25.988 Y-60.075 E56.14938
G1 X-24.362 Y-60.349 E56.27062
G1 X-22.305 Y-60.633 E56.42318
G1 X-20.664 Y-60.808 E56.54444
G1 X-18.594 Y-60.965 E56.69702
G1 X-16.945 Y-61.040 E56.81828
G1 X-14.817 Y-61.071 E56.97473
G1 X-12.741 Y-61.029 E57.12733 F1200.000
G1 X-10.615 Y-60.914 E57.28378
G1 X-8.494 Y-60.724 E57.44026
G1 X-6.856 Y-60.526 E57.56151
G1 X-4.803 Y-60.214 E57.71411
G1 X-2.710 Y-59.822 E57.87056
G1 X-0.632 Y-59.357 E58.02702
G1 X1.428 Y-58.820 E58.18349
G1 X3.469 Y-58.212 E58.33996
G1 X5.034 Y-57.691 E58.46121
G1 X6.984 Y-56.977 E58.61380
G1 X8.957 Y-56.176 E58.77026
G1 X10.466 Y-55.508 E58.89151
G1 X12.385 Y-54.587 E59.04799
G1 X14.225 Y-53.624 E59.20058
G1 X16.077 Y-52.573 E59.35709
G1 X17.890 Y-51.458 E59.51352
G1 X19.707 Y-50.250 E59.67380
G1 X67.028 Y-17.301 E63.91117
G1 X67.745 Y-16.780 E63.97627
G1 X68.745 Y-15.971 E64.07080
G1 X69.731 Y-15.066 E64.16918
G1 X70.711 Y-14.042 E64.27332
G1 X71.570 Y-13.016 E64.37163
G1 X72.408 Y-11.873 E64.47581
G1 X73.102 Y-10.785 E64.57064
G1 X73.748 Y-9.618 E64.66866
G1 X74.352 Y-8.336 E64.77276
G1 X74.631 Y-7.655 E64.82685
G1 X74.886 Y-6.967 E64.88080
G1 X75.119 Y-6.262 E64.93535
G1 X75.323 Y-5.565 E64.98876
G1 X75.507 Y-4.843 E65.04348
G1 X75.662 Y-4.134 E65.09681
G1 X75.794 Y-3.407 E65.15108
G1 X75.901 Y-2.675 E65.20548
G1 X75.985 Y-1.901 E65.26268
G1 X76.039 Y-1.168 E65.31672
G1 X76.067 Y-0.433 E65.37073
G1 X76.069 Y0.302 E65.42479
G1 X76.045 Y1.037 E65.47879
G1 X75.997 Y1.770 E65.53282
G1 X75.922 Y2.501 E65.58681
G1 X75.822 Y3.229 E65.64079
G1 X75.697 Y3.954 E65.69481
G1 X75.546 Y4.673 E65.74881
G1 X75.371 Y5.386 E65.80280
G1 X75.171 Y6.093 E65.85679
G1 X74.946 Y6.793 E65.91084
G1 X74.697 Y7.485 E65.96486
G1 X74.424 Y8.167 E66.01884
G1 X74.127 Y8.839 E66.07281
G1 X73.808 Y9.501 E66.12683
G1 X73.465 Y10.151 E66.18083
G1 X73.099 Y10.789 E66.23488
G1 X72.712 Y11.414 E66.28890
G1 X72.303 Y12.025 E66.34292
G1 X71.874 Y12.620 E66.39685
G1 X71.423 Y13.201 E66.45086
G1 X70.953 Y13.766 E66.50490
G1 X70.084 Y14.712 E66.59930
G1 X69.197 Y15.571 E66.69005
G1 X68.225 Y16.404 E66.78410
G1 X67.302 Y17.107 E66.86938
G1 X30.110 Y43.007 E70.19986
G1 X29.804 Y42.567 F7800.000
G1 X18.926 Y50.135 E71.17365 F1200.000
G1 X18.047 Y50.719 E71.25121
G1 X16.750 Y51.541 E71.36403
G1 X14.893 Y52.640 E71.52263
G1 X13.506 Y53.404 E71.63896
G1 X12.100 Y54.131 E71.75529
G1 X10.675 Y54.821 E71.87162
G1 X8.792 Y55.664 E72.02322
G1 X7.329 Y56.267 E72.13953
G1 X5.850 Y56.832 E72.25590
G1 X4.358 Y57.357 E72.37215
G1 X2.805 Y57.858 E72.49202
G1 X1.286 Y58.304 E72.60836
G1 X-0.710 Y58.825 E72.75992
G1 X-2.299 Y59.188 E72.87977
G1 X-4.323 Y59.587 E73.03136
G1 X-5.932 Y59.853 E73.15120
G1 X-7.978 Y60.127 E73.30283
G1 X-9.599 Y60.294 E73.42262
G1 X-11.656 Y60.443 E73.57417
G1 X-13.286 Y60.511 E73.69404
G1 X-15.348 Y60.535 E73.84559
G1 X-16.979 Y60.503 E73.96547
G1 X-19.019 Y60.402 E74.11555
G1 X-20.617 Y60.274 E74.23338
G1 X-22.239 Y60.101 E74.35322
G1 X-24.282 Y59.820 E74.50477
G1 X-25.890 Y59.548 E74.62464
G1 X-27.912 Y59.143 E74.77619
G1 X-29.501 Y58.773 E74.89606
G1 X-31.495 Y58.245 E75.04767
G1 X-33.058 Y57.780 E75.16749
G1 X-35.015 Y57.131 E75.31903
G1 X-36.548 Y56.571 E75.43892
G1 X-38.463 Y55.804 E75.59054
G1 X-39.957 Y55.152 E75.71034
G1 X-41.822 Y54.269 E75.86196
G1 X-43.274 Y53.527 E75.98177
G1 X-45.081 Y52.533 E76.13331
G1 X-46.485 Y51.703 E76.25320
G1 X-48.228 Y50.601 E76.40474
G1 X-49.579 Y49.687 E76.52461
G1 X-51.252 Y48.481 E76.67617
G1 X-52.545 Y47.486 E76.79604
G1 X-54.141 Y46.180 E76.94759
G1 X-55.371 Y45.108 E77.06747
G1 X-56.884 Y43.707 E77.21902
G1 X-58.046 Y42.563 E77.33889
G1 X-59.472 Y41.071 E77.49048
G1 X-60.863 Y39.512 E77.64407
G1 X-61.923 Y38.246 E77.76540
G1 X-63.199 Y36.626 E77.91696
G1 X-64.168 Y35.313 E78.03684
G1 X-65.343 Y33.618 E78.18839
G1 X-66.230 Y32.250 E78.30826
G1 X-67.299 Y30.486 E78.45980
G1 X-68.101 Y29.066 E78.57968
G1 X-69.061 Y27.240 E78.73124
G1 X-69.775 Y25.773 E78.85111
G1 X-70.621 Y23.893 E79.00266
G1 X-71.245 Y22.385 E79.12252
G1 X-71.975 Y20.456 E79.27408
G1 X-72.653 Y18.458 E79.42918
G1 X-73.130 Y16.898 E79.54905
G1 X-73.672 Y14.907 E79.70064
G1 X-74.052 Y13.322 E79.82048
G1 X-74.471 Y11.302 E79.97204
G1 X-74.754 Y9.696 E80.09190
G1 X-75.050 Y7.655 E80.24346
G1 X-75.234 Y6.034 E80.36333
G1 X-75.405 Y3.979 E80.51489
G1 X-75.490 Y2.350 E80.63476
G1 X-75.535 Y0.288 E80.78633
G1 X-75.521 Y-1.343 E80.90619
G1 X-75.437 Y-3.452 E81.06128
G1 X-75.285 Y-5.509 E81.21283
G1 X-75.114 Y-7.131 E81.33271
G1 X-74.836 Y-9.175 E81.48427
G1 X-74.568 Y-10.784 E81.60414
G1 X-74.155 Y-12.854 E81.75923
G1 X-73.683 Y-14.861 E81.91079
G1 X-73.262 Y-16.437 E82.03065
G1 X-72.668 Y-18.412 E82.18218
G1 X-72.151 Y-19.959 E82.30207
G1 X-71.438 Y-21.894 E82.45363
G1 X-70.827 Y-23.407 E82.57349
G1 X-69.998 Y-25.295 E82.72506
G1 X-69.091 Y-27.179 E82.87868
G1 X-68.330 Y-28.644 E83.00003
G1 X-67.323 Y-30.444 E83.15158
G1 X-66.484 Y-31.843 E83.27145
G1 X-65.370 Y-33.578 E83.42299
G1 X-64.447 Y-34.923 E83.54287
G1 X-63.228 Y-36.587 E83.69443
G1 X-62.225 Y-37.873 E83.81430
G1 X-60.907 Y-39.460 E83.96585
G1 X-59.828 Y-40.682 E84.08573
G1 X-58.416 Y-42.186 E84.23728
G1 X-57.263 Y-43.340 E84.35716
G1 X-55.727 Y-44.787 E84.51224
G1 X-54.178 Y-46.148 E84.66379
G1 X-52.920 Y-47.187 E84.78367
G1 X-51.291 Y-48.452 E84.93522
G1 X-49.972 Y-49.412 E85.05509
G1 X-48.268 Y-50.575 E85.20666
G1 X-46.485 Y-51.703 E85.36174
G1 X-45.081 Y-52.533 E85.48161
G1 X-43.274 Y-53.527 E85.63317
G1 X-41.821 Y-54.270 E85.75305
G1 X-39.957 Y-55.152 E85.90460
G1 X-38.462 Y-55.804 E86.02447
G1 X-36.547 Y-56.571 E86.17604
G1 X-35.016 Y-57.131 E86.29589
G1 X-33.057 Y-57.780 E86.44748
G1 X-31.495 Y-58.245 E86.56731
G1 X-29.501 Y-58.773 E86.71888
G1 X-27.912 Y-59.143 E86.83873
G1 X-25.890 Y-59.548 E86.99030
G1 X-24.282 Y-59.820 E87.11017
G1 X-22.191 Y-60.107 E87.26527
G1 X-20.139 Y-60.317 E87.41681
G1 X-18.512 Y-60.434 E87.53669
G1 X-16.451 Y-60.518 E87.68826
G1 X-14.820 Y-60.535 E87.80811
G1 X-12.758 Y-60.494 E87.95967 F1200.000
G1 X-10.651 Y-60.379 E88.11475
G1 X-8.549 Y-60.191 E88.26986
G1 X-6.929 Y-59.995 E88.38974
